X: 12
T:Rose in the Heather, The
M:6/8
L:1/8
R:Double Jig
K:D
F3 EFE|DFA BAF|ABd ede|fdB AFE|!
~F3 EFE|DFA BAF|AdB AFE|1FDD D3:|2FDD D2e|!
|:fdB ABd|faa afd|~g3 fed|Bee ede|!
fdB ABd|faa afa|baf gfe|1fdd d2e:|2fdB AFE|]!
